!!!SOCIAL_FUNCTION:	songs of social dance
!!!PDT:	1939
!!!OTL: No_69_Song_of_Defiance_(a).krn
!!!LANG: Non-Tone
!!!LING_GROUP: Wakashan
!!!REG: Pacific Northwest
**kern
*staff1
=1-
*clefF4
*k[f#]
*M3/4
2r
8A\L
8A\J
=2
8.B\L
16A\Jk
4A\
12B\L
12A\
12F#\J
=3||
*M2/4
8.F#\L
16E\Jk
8.E/L
16BB/Jk
=4||
*M3/4
2.E\
=5||
*M2/4
16E\
16r
8r
8A\L
8A\J
=6||
*M3/4
8.B\L
16A\Jk
4A\
12B\L
12A\
12F#\J
=7||
*M2/4
8.F#\L
16E\Jk
8.E/L
16BB/Jk
=8||
*M3/4
2.E\
=9||
*M2/4
8E\
16r
16A\
8A\L
8F#\J
=10||
*M3/4
8.F#\L
16E\Jk
4E\
8E\L
8D\J
=11||
*M2/4
8.D/L
16BB/Jk
8.BB/L
16AA/Jk
=12||
*M3/4
2.AA/
=13||
*M2/4
8AA/
8r
8E\L
8E\J
=14||
*M3/4
8.F#\L
16E\Jk
4E\
8E\L
8D\J
=15||
*M2/4
8.D/L
16BB/Jk
8.BB/L
16AA/Jk
=16||
*M3/4
2.AA/
=17||
*M2/4
8AA/
16r
16BB/
8BB/L
8BB/J
=18||
*M3/4
8.BB/L
16AA/Jk
16AA/
16r
8A\
8A\L
8A\J
=19||
*M2/4
(8B\L
8A\J)
4A\
=20||
*M3/4
8B\L
8G\J
8G\L
8F#\J
8G\L
16E\L
16E\JJ
=21
2.E\
=22||
*M5/8
8E\
8r
8A\L
8A\
8A\J
=23||
*M2/4
8B\L
8A\J
4A\
=24||
*M3/4
8B\L
8G\J
8G\L
8F#\J
8G\L
16E\L
16E\JJ
=25
2.E\
=26||
*M2/4
8E\
16r
16A\
8A\L
8F#\J
=27
8.F#\L
16E\Jk
8E\
8r
==
*-
